packages/kaspersky-hexa-ui-icons/src/iconsSVGs/16x12/FlagMe.svg

<svg width="16" height="12" viewBox="0 0 16 12" fill="none" xmlns="http://www.w3.org/2000/svg">
<g clip-path="url(#clip0_41818_3246)">
<rect width="16" height="12" rx="2" fill="white"/>
<mask id="mask0_41818_3246" style="mask-type:luminance" maskUnits="userSpaceOnUse" x="0" y="0" width="16" height="12">
<rect width="16" height="12" rx="2" fill="white"/>
</mask>
<g mask="url(#mask0_41818_3246)">
<rect width="16" height="12" fill="#E6BE53"/>
<path fill-rule="evenodd" clip-rule="evenodd" d="M0.761963 10.2C0.761963 10.7523 1.20968 11.2 1.76196 11.2H14.2382C14.7904 11.2 15.2382 10.7523 15.2382 10.2V1.8C15.2382 1.24772 14.7904 0.800003 14.2382 0.800003H1.76196C1.20968 0.800003 0.761963 1.24772 0.761963 1.8V10.2Z" fill="#E01826"/>
<path d="M8.92712 3.42586C9.05454 3.29207 9.25569 3.25906 9.41931 3.3448C9.66261 3.47253 9.71331 3.80109 9.5238 4.00008L9.07849 4.46785C8.88798 4.66789 8.84064 4.96452 8.95935 5.21394L9.12244 5.55672C9.13599 5.58524 9.14294 5.61693 9.14294 5.64851C9.14327 5.80823 9.31296 5.91031 9.45447 5.83601L9.62048 5.7491C9.76288 5.67412 9.79401 5.48384 9.68298 5.36726C9.59387 5.27357 9.59379 5.12595 9.68298 5.0323L9.84998 4.8575C9.88616 4.8195 9.91627 4.77595 9.93884 4.72859L10.2552 4.06355C10.2754 4.02133 10.2913 3.97721 10.3021 3.93172L10.3275 3.82527C10.4601 3.26901 11.1853 3.12693 11.5179 3.59187L11.6849 3.82625C11.7657 3.93932 11.8099 4.075 11.8099 4.21394V5.4493C11.8099 5.54846 11.7871 5.64687 11.7445 5.7364L11.474 6.30379C11.4437 6.36741 11.4035 6.42561 11.3549 6.47664L10.7426 7.12019C10.6925 7.17279 10.634 7.21728 10.5697 7.25105L9.94373 7.58015C9.91834 7.59348 9.88939 7.59969 9.86072 7.59969C9.67616 7.60007 9.61528 7.84766 9.77869 7.93367L9.87537 7.98445C9.89495 7.99477 9.91284 8.00846 9.9281 8.02449L10.0951 8.20027C10.1987 8.30897 10.3723 8.30881 10.476 8.20027C10.5796 8.09144 10.7531 8.09147 10.8568 8.20027L10.8969 8.24129C10.9877 8.33666 11.0101 8.47882 10.9535 8.59773L10.848 8.82039C10.7374 9.05242 10.5025 9.20027 10.2455 9.20027H10.0687C9.96092 9.2002 9.85461 9.17324 9.75916 9.12312L9.28943 8.87703C9.19448 8.82718 9.11776 8.74729 9.07166 8.65047L8.91638 8.3243C8.84189 8.16788 8.63354 8.13443 8.51404 8.25984C8.43576 8.34204 8.4239 8.46773 8.48474 8.56355L8.80115 9.0616C8.99225 9.36258 8.91256 9.76144 8.62048 9.9659L8.3822 10.1319C8.15266 10.2926 7.8471 10.2926 7.61755 10.1319L7.37927 9.9659C7.0872 9.76144 7.00751 9.36258 7.19861 9.0616L7.51599 8.56355C7.57683 8.46773 7.564 8.34204 7.48572 8.25984C7.36618 8.13462 7.15783 8.16794 7.08337 8.3243L6.9281 8.65047C6.88203 8.74722 6.80616 8.82718 6.7113 8.87703L6.2406 9.12312C6.14505 9.17329 6.03895 9.20025 5.93103 9.20027H5.75427C5.49732 9.20026 5.26335 9.05226 5.15271 8.82039L5.04626 8.59773C4.98964 8.47882 5.01207 8.33666 5.10291 8.24129L5.14294 8.20027C5.2466 8.09143 5.42014 8.09143 5.5238 8.20027C5.62741 8.30892 5.80102 8.30886 5.90466 8.20027L6.07166 8.02449C6.08698 8.00839 6.10569 7.99478 6.12537 7.98445L6.22107 7.93367C6.38481 7.84771 6.32392 7.59978 6.13904 7.59969C6.11054 7.59969 6.08227 7.59332 6.05701 7.58015L5.43103 7.25105C5.36668 7.21727 5.30733 7.17282 5.2572 7.12019L4.6449 6.47664C4.59636 6.42563 4.55603 6.36736 4.52576 6.30379L4.25525 5.7364C4.21261 5.64687 4.1908 5.54846 4.1908 5.4493V4.21394C4.1908 4.075 4.23406 3.93931 4.31482 3.82625L4.48181 3.59187C4.81446 3.1267 5.54073 3.26882 5.67322 3.82527L5.69763 3.93172C5.70847 3.97719 5.72441 4.02134 5.74451 4.06355L6.06091 4.72859C6.08349 4.77598 6.11359 4.81948 6.14978 4.8575L6.31677 5.0323C6.406 5.12599 6.406 5.27358 6.31677 5.36726C6.20573 5.48392 6.23764 5.67423 6.38025 5.7491L6.54529 5.83601C6.6868 5.91031 6.85649 5.80823 6.85681 5.64851C6.85681 5.61687 6.86469 5.58529 6.8783 5.55672L7.04138 5.21394C7.15988 4.96469 7.11247 4.66782 6.92224 4.46785L6.47595 4.00008C6.28655 3.80108 6.33719 3.47251 6.58044 3.3448C6.74405 3.25892 6.94514 3.29213 7.07263 3.42586L7.61951 4.00008C7.82686 4.21751 8.17398 4.21768 8.38123 4.00008L8.92712 3.42586ZM7.78943 2.07332C7.92561 2.02569 8.07413 2.02576 8.21033 2.07332L8.32654 2.11433C8.70906 2.24855 8.82575 2.73274 8.54626 3.02644C8.44092 3.13706 8.29471 3.20017 8.14197 3.20027H7.85876C7.70595 3.20027 7.55989 3.13706 7.45447 3.02644C7.17466 2.73264 7.29125 2.24836 7.67419 2.11433L7.78943 2.07332Z" fill="#E6BE53"/>
<ellipse cx="7.99994" cy="6.48807" rx="0.761905" ry="0.888062" fill="#215F90"/>
</g>
</g>
<defs>
<clipPath id="clip0_41818_3246">
<rect width="16" height="12" fill="white"/>
</clipPath>
</defs>
</svg>

<svg xmlns="http://www.w3.org/2000/svg" width="16" height="12" fill="none" viewBox="0 0 16 12"><g clip-path="url(#a)"><rect width="16" height="12" fill="#fff" rx="2"/><mask id="b" width="16" height="12" x="0" y="0" maskUnits="userSpaceOnUse" style="mask-type:luminance"><rect width="16" height="12" fill="#fff" rx="2"/></mask><g mask="url(#b)"><path fill="#e6be53" d="M0 0h16v12H0z"/><path fill="#e01826" fill-rule="evenodd" d="M.762 10.2c0 .5523.4477 1 1 1h12.4762c.5522 0 1-.4477 1-1V1.8c0-.5523-.4478-1-1-1H1.762c-.5523 0-1 .4477-1 1z" clip-rule="evenodd"/><path fill="#e6be53" d="M8.9271 3.4259a.4145.4145 0 0 1 .4922-.0811c.2433.1277.294.4563.1045.6553l-.4453.4678a.666.666 0 0 0-.1191.746l.163.3428a.215.215 0 0 1 .0205.0918c.0004.1597.17.2618.3116.1875l.166-.0869a.2425.2425 0 0 0 .0625-.3818.243.243 0 0 1 0-.335l.167-.1748a.5.5 0 0 0 .0888-.129l.3164-.665a.66.66 0 0 0 .0469-.1318l.0254-.1064c.1326-.5563.8578-.6984 1.1904-.2334l.167.2344a.67.67 0 0 1 .125.3876v1.2354a.67.67 0 0 1-.0654.2871l-.2705.5674a.67.67 0 0 1-.1191.1728l-.6123.6436a.67.67 0 0 1-.1729.1309l-.626.329a.18.18 0 0 1-.083.0196c-.1845.0004-.2454.248-.082.334l.0967.0507a.2.2 0 0 1 .0527.04l.167.1759a.2634.2634 0 0 0 .3809 0 .263.263 0 0 1 .3808 0l.0401.041a.319.319 0 0 1 .0566.3564l-.1055.2227a.668.668 0 0 1-.6025.3799h-.1768a.67.67 0 0 1-.3095-.0772l-.4698-.246a.5.5 0 0 1-.2177-.2266l-.1553-.3262c-.0745-.1564-.2829-.1899-.4024-.0645a.248.248 0 0 0-.0293.3037l.3164.4981a.6677.6677 0 0 1-.1806.9043l-.2383.166a.667.667 0 0 1-.7646 0l-.2383-.166a.6677.6677 0 0 1-.1807-.9043l.3174-.498a.2476.2476 0 1 0-.4326-.2393l-.1553.3262a.497.497 0 0 1-.2168.2265l-.4707.2461a.67.67 0 0 1-.3096.0772h-.1767a.667.667 0 0 1-.6016-.38l-.1064-.2226a.319.319 0 0 1 .0566-.3564l.04-.041a.263.263 0 0 1 .3809 0 .2633.2633 0 0 0 .3809 0l.167-.1758a.21.21 0 0 1 .0537-.04l.0957-.0508c.1637-.086.1028-.334-.082-.334a.18.18 0 0 1-.082-.0196l-.626-.329a.67.67 0 0 1-.1739-.131l-.6123-.6435a.67.67 0 0 1-.1191-.1728l-.2706-.5674a.67.67 0 0 1-.0644-.2871V4.2139a.667.667 0 0 1 .124-.3876l.167-.2344c.3327-.4652 1.059-.323 1.1914.2334l.0244.1064a.67.67 0 0 0 .047.1319l.3163.665a.5.5 0 0 0 .0889.1289l.167.1748a.243.243 0 0 1 0 .335.2425.2425 0 0 0 .0635.3818l.165.087c.1415.0742.3112-.0279.3115-.1876a.215.215 0 0 1 .0215-.0918l.163-.3428a.667.667 0 0 0-.119-.746L6.476 4c-.1894-.199-.1388-.5276.1044-.6553a.4144.4144 0 0 1 .4922.081L7.6196 4a.526.526 0 0 0 .7616 0zM7.7894 2.0733a.638.638 0 0 1 .421 0l.1161.041c.3826.1342.4993.6184.2198.9121a.56.56 0 0 1-.4043.1739h-.2832a.56.56 0 0 1-.4043-.1739c-.2798-.2938-.1633-.778.2197-.912z"/><circle cx="8" cy="6" r="1" fill="#215f90"/></g></g><defs><clipPath id="a"><path fill="#fff" d="M0 0h16v12H0z"/></clipPath></defs></svg>
